images/50406986.svg

<?xml version="1.0" encoding="UTF-8"?>
<svg xmlns="http://www.w3.org/2000/svg" xmlns:xlink="http://www.w3.org/1999/xlink" width="300pt" height="300pt" viewBox="0 0 300 300" version="1.1">
<defs>
<g>
<symbol overflow="visible" id="glyph0-0">
<path style="stroke:none;" d="M 0.453125 1.59375 L 0.453125 -6.34375 L 4.953125 -6.34375 L 4.953125 1.59375 Z M 0.953125 1.09375 L 4.453125 1.09375 L 4.453125 -5.84375 L 0.953125 -5.84375 Z M 0.953125 1.09375 "/>
</symbol>
<symbol overflow="visible" id="glyph0-1">
<path style="stroke:none;" d="M 3.546875 -5.953125 C 2.898438 -5.953125 2.382812 -5.710938 2 -5.234375 C 1.625 -4.753906 1.4375 -4.101562 1.4375 -3.28125 C 1.4375 -2.445312 1.625 -1.789062 2 -1.3125 C 2.382812 -0.832031 2.898438 -0.59375 3.546875 -0.59375 C 4.191406 -0.59375 4.703125 -0.832031 5.078125 -1.3125 C 5.453125 -1.789062 5.640625 -2.445312 5.640625 -3.28125 C 5.640625 -4.101562 5.453125 -4.753906 5.078125 -5.234375 C 4.703125 -5.710938 4.191406 -5.953125 3.546875 -5.953125 Z M 3.546875 -6.6875 C 4.460938 -6.6875 5.195312 -6.375 5.75 -5.75 C 6.300781 -5.132812 6.578125 -4.3125 6.578125 -3.28125 C 6.578125 -2.238281 6.300781 -1.410156 5.75 -0.796875 C 5.195312 -0.179688 4.460938 0.125 3.546875 0.125 C 2.617188 0.125 1.878906 -0.179688 1.328125 -0.796875 C 0.773438 -1.410156 0.5 -2.238281 0.5 -3.28125 C 0.5 -4.3125 0.773438 -5.132812 1.328125 -5.75 C 1.878906 -6.375 2.617188 -6.6875 3.546875 -6.6875 Z M 3.546875 -6.6875 "/>
</symbol>
<symbol overflow="visible" id="glyph0-2">
<path style="stroke:none;" d="M 0.890625 -6.5625 L 2.078125 -6.5625 L 4.984375 -1.078125 L 4.984375 -6.5625 L 5.84375 -6.5625 L 5.84375 0 L 4.65625 0 L 1.75 -5.484375 L 1.75 0 L 0.890625 0 Z M 0.890625 -6.5625 "/>
</symbol>
<symbol overflow="visible" id="glyph0-3">
<path style="stroke:none;" d="M 0.890625 -6.5625 L 1.765625 -6.5625 L 1.765625 -3.875 L 5 -3.875 L 5 -6.5625 L 5.890625 -6.5625 L 5.890625 0 L 5 0 L 5 -3.125 L 1.765625 -3.125 L 1.765625 0 L 0.890625 0 Z M 0.890625 -6.5625 "/>
</symbol>
</g>
</defs>
<g id="surface12085">
<rect x="0" y="0" width="300" height="300" style="fill:rgb(100%,100%,100%);fill-opacity:1;stroke:none;"/>
<path style="fill:none;stroke-width:1.2;stroke-linecap:butt;stroke-linejoin:miter;stroke:rgb(100%,0%,0%);stroke-opacity:1;stroke-miterlimit:10;" d="M 73.144531 106.828125 L 66.898438 114.894531 "/>
<path style="fill:none;stroke-width:1.2;stroke-linecap:butt;stroke-linejoin:miter;stroke:rgb(0%,0%,0%);stroke-opacity:1;stroke-miterlimit:10;" d="M 66.898438 114.894531 L 60.648438 122.960938 "/>
<path style="fill:none;stroke-width:1.2;stroke-linecap:butt;stroke-linejoin:miter;stroke:rgb(100%,0%,0%);stroke-opacity:1;stroke-miterlimit:10;" d="M 76.941406 109.765625 L 70.695312 117.835938 "/>
<path style="fill:none;stroke-width:1.2;stroke-linecap:butt;stroke-linejoin:miter;stroke:rgb(0%,0%,0%);stroke-opacity:1;stroke-miterlimit:10;" d="M 70.695312 117.835938 L 64.445312 125.902344 "/>
<path style=" stroke:none;fill-rule:nonzero;fill:rgb(100%,100%,100%);fill-opacity:1;" d="M 71.042969 102.796875 L 79.042969 102.796875 L 79.042969 113.796875 L 71.042969 113.796875 Z M 71.042969 102.796875 "/>
<g style="fill:rgb(100%,0%,0%);fill-opacity:1;">
  <use xlink:href="#glyph0-1" x="71.042969" y="111.459961"/>
</g>
<path style="fill:none;stroke-width:1.2;stroke-linecap:butt;stroke-linejoin:miter;stroke:rgb(0%,0%,0%);stroke-opacity:1;stroke-miterlimit:10;" d="M 62.546875 124.433594 L 52.347656 124.121094 "/>
<path style="fill:none;stroke-width:1.2;stroke-linecap:butt;stroke-linejoin:miter;stroke:rgb(0%,0%,100%);stroke-opacity:1;stroke-miterlimit:10;" d="M 52.347656 124.121094 L 42.148438 123.808594 "/>
<path style="fill:none;stroke-width:1.2;stroke-linecap:butt;stroke-linejoin:miter;stroke:rgb(0%,0%,100%);stroke-opacity:1;stroke-miterlimit:10;" d="M 68.257812 144.027344 L 65.402344 134.230469 "/>
<path style="fill:none;stroke-width:1.2;stroke-linecap:butt;stroke-linejoin:miter;stroke:rgb(0%,0%,0%);stroke-opacity:1;stroke-miterlimit:10;" d="M 65.402344 134.230469 L 62.546875 124.433594 "/>
<path style="fill:none;stroke-width:1.2;stroke-linecap:butt;stroke-linejoin:miter;stroke:rgb(0%,0%,100%);stroke-opacity:1;stroke-miterlimit:10;" d="M 42.148438 123.808594 L 38.699219 133.410156 "/>
<path style="fill:none;stroke-width:1.2;stroke-linecap:butt;stroke-linejoin:miter;stroke:rgb(0%,0%,0%);stroke-opacity:1;stroke-miterlimit:10;" d="M 38.699219 133.410156 L 35.25 143.015625 "/>
<path style=" stroke:none;fill-rule:nonzero;fill:rgb(100%,100%,100%);fill-opacity:1;" d="M 35.148438 118.308594 L 49.148438 118.308594 L 49.148438 129.308594 L 35.148438 129.308594 Z M 35.148438 118.308594 "/>
<g style="fill:rgb(0%,0%,100%);fill-opacity:1;">
  <use xlink:href="#glyph0-2" x="35.148438" y="126.97168"/>
  <use xlink:href="#glyph0-3" x="42.125977" y="126.97168"/>
</g>
<path style="fill:none;stroke-width:1.2;stroke-linecap:butt;stroke-linejoin:miter;stroke:rgb(0%,0%,0%);stroke-opacity:1;stroke-miterlimit:10;" d="M 35.25 143.015625 L 51.386719 155.511719 "/>
<path style="fill:none;stroke-width:1.2;stroke-linecap:butt;stroke-linejoin:miter;stroke:rgb(0%,0%,0%);stroke-opacity:1;stroke-miterlimit:10;" d="M 51.386719 155.511719 L 59.820312 149.769531 "/>
<path style="fill:none;stroke-width:1.2;stroke-linecap:butt;stroke-linejoin:miter;stroke:rgb(0%,0%,100%);stroke-opacity:1;stroke-miterlimit:10;" d="M 59.820312 149.769531 L 68.257812 144.027344 "/>
<path style="fill:none;stroke-width:1.2;stroke-linecap:butt;stroke-linejoin:miter;stroke:rgb(0%,0%,100%);stroke-opacity:1;stroke-miterlimit:10;" d="M 68.257812 144.027344 L 77.859375 147.476562 "/>
<path style="fill:none;stroke-width:1.2;stroke-linecap:butt;stroke-linejoin:miter;stroke:rgb(0%,0%,0%);stroke-opacity:1;stroke-miterlimit:10;" d="M 77.859375 147.476562 L 87.464844 150.925781 "/>
<path style=" stroke:none;fill-rule:nonzero;fill:rgb(100%,100%,100%);fill-opacity:1;" d="M 65.257812 138.527344 L 72.257812 138.527344 L 72.257812 149.527344 L 65.257812 149.527344 Z M 65.257812 138.527344 "/>
<g style="fill:rgb(0%,0%,100%);fill-opacity:1;">
  <use xlink:href="#glyph0-2" x="65.257812" y="147.19043"/>
</g>
<path style="fill:none;stroke-width:1.2;stroke-linecap:butt;stroke-linejoin:miter;stroke:rgb(0%,0%,0%);stroke-opacity:1;stroke-miterlimit:10;" d="M 87.464844 150.925781 L 91.09375 171.007812 "/>
<path style="fill:none;stroke-width:1.2;stroke-linecap:butt;stroke-linejoin:miter;stroke:rgb(0%,0%,0%);stroke-opacity:1;stroke-miterlimit:10;" d="M 92.554688 152.078125 L 95.457031 168.144531 "/>
<path style="fill:none;stroke-width:1.2;stroke-linecap:butt;stroke-linejoin:miter;stroke:rgb(0%,0%,0%);stroke-opacity:1;stroke-miterlimit:10;" d="M 103.042969 137.738281 L 87.464844 150.925781 "/>
<path style="fill:none;stroke-width:1.2;stroke-linecap:butt;stroke-linejoin:miter;stroke:rgb(0%,0%,0%);stroke-opacity:1;stroke-miterlimit:10;" d="M 91.09375 171.007812 L 110.300781 177.90625 "/>
<path style="fill:none;stroke-width:1.2;stroke-linecap:butt;stroke-linejoin:miter;stroke:rgb(0%,0%,0%);stroke-opacity:1;stroke-miterlimit:10;" d="M 110.300781 177.90625 L 125.878906 164.722656 "/>
<path style="fill:none;stroke-width:1.2;stroke-linecap:butt;stroke-linejoin:miter;stroke:rgb(0%,0%,0%);stroke-opacity:1;stroke-miterlimit:10;" d="M 108.757812 172.921875 L 121.21875 162.375 "/>
<path style="fill:none;stroke-width:1.2;stroke-linecap:butt;stroke-linejoin:miter;stroke:rgb(0%,0%,0%);stroke-opacity:1;stroke-miterlimit:10;" d="M 125.878906 164.722656 L 122.25 144.636719 "/>
<path style="fill:none;stroke-width:1;stroke-linecap:butt;stroke-linejoin:miter;stroke:rgb(0%,0%,0%);stroke-opacity:1;stroke-miterlimit:10;" d="M 145.085938 171.621094 L 145.085938 171.621094 M 142.484375 170.128906 L 142.132812 171.113281 M 139.878906 168.640625 L 139.175781 170.605469 M 137.273438 167.152344 L 136.21875 170.097656 M 134.671875 165.664062 L 133.261719 169.589844 M 132.066406 164.171875 L 130.304688 169.082031 M 129.460938 162.683594 L 127.347656 168.574219 M 127.097656 161.332031 L 124.664062 168.109375 "/>
<path style="fill:none;stroke-width:1.2;stroke-linecap:butt;stroke-linejoin:miter;stroke:rgb(0%,0%,0%);stroke-opacity:1;stroke-miterlimit:10;" d="M 122.25 144.636719 L 103.042969 137.738281 "/>
<path style="fill:none;stroke-width:1.2;stroke-linecap:butt;stroke-linejoin:miter;stroke:rgb(0%,0%,0%);stroke-opacity:1;stroke-miterlimit:10;" d="M 118.707031 148.46875 L 103.339844 142.949219 "/>
<path style="fill:none;stroke-width:1.2;stroke-linecap:butt;stroke-linejoin:miter;stroke:rgb(0%,0%,0%);stroke-opacity:1;stroke-miterlimit:10;" d="M 145.085938 171.621094 L 160.664062 158.433594 "/>
<path style="fill:none;stroke-width:1.2;stroke-linecap:butt;stroke-linejoin:miter;stroke:rgb(0%,0%,0%);stroke-opacity:1;stroke-miterlimit:10;" d="M 145.085938 171.621094 L 148.71875 191.703125 "/>
<path style="fill:none;stroke-width:1.2;stroke-linecap:butt;stroke-linejoin:miter;stroke:rgb(0%,0%,0%);stroke-opacity:1;stroke-miterlimit:10;" d="M 163.027344 158.007812 L 161.214844 147.964844 "/>
<path style="fill:none;stroke-width:1.2;stroke-linecap:butt;stroke-linejoin:miter;stroke:rgb(100%,0%,0%);stroke-opacity:1;stroke-miterlimit:10;" d="M 161.214844 147.964844 L 159.398438 137.925781 "/>
<path style="fill:none;stroke-width:1.2;stroke-linecap:butt;stroke-linejoin:miter;stroke:rgb(0%,0%,0%);stroke-opacity:1;stroke-miterlimit:10;" d="M 158.304688 158.863281 L 156.488281 148.820312 "/>
<path style="fill:none;stroke-width:1.2;stroke-linecap:butt;stroke-linejoin:miter;stroke:rgb(100%,0%,0%);stroke-opacity:1;stroke-miterlimit:10;" d="M 156.488281 148.820312 L 154.671875 138.777344 "/>
<path style="fill:none;stroke-width:1.2;stroke-linecap:butt;stroke-linejoin:miter;stroke:rgb(0%,0%,0%);stroke-opacity:1;stroke-miterlimit:10;" d="M 160.664062 158.433594 L 170.269531 161.882812 "/>
<path style="fill:none;stroke-width:1.2;stroke-linecap:butt;stroke-linejoin:miter;stroke:rgb(0%,0%,100%);stroke-opacity:1;stroke-miterlimit:10;" d="M 170.269531 161.882812 L 179.875 165.332031 "/>
<path style=" stroke:none;fill-rule:nonzero;fill:rgb(100%,100%,100%);fill-opacity:1;" d="M 153.035156 132.851562 L 161.035156 132.851562 L 161.035156 143.851562 L 153.035156 143.851562 Z M 153.035156 132.851562 "/>
<g style="fill:rgb(100%,0%,0%);fill-opacity:1;">
  <use xlink:href="#glyph0-1" x="153.035156" y="141.514648"/>
</g>
<path style="fill:none;stroke-width:1.2;stroke-linecap:butt;stroke-linejoin:miter;stroke:rgb(0%,0%,100%);stroke-opacity:1;stroke-miterlimit:10;" d="M 179.875 165.332031 L 187.664062 158.738281 "/>
<path style="fill:none;stroke-width:1.2;stroke-linecap:butt;stroke-linejoin:miter;stroke:rgb(0%,0%,0%);stroke-opacity:1;stroke-miterlimit:10;" d="M 187.664062 158.738281 L 195.449219 152.148438 "/>
<path style=" stroke:none;fill-rule:nonzero;fill:rgb(100%,100%,100%);fill-opacity:1;" d="M 172.875 159.832031 L 186.875 159.832031 L 186.875 170.832031 L 172.875 170.832031 Z M 172.875 159.832031 "/>
<g style="fill:rgb(0%,0%,100%);fill-opacity:1;">
  <use xlink:href="#glyph0-2" x="172.875" y="168.495117"/>
  <use xlink:href="#glyph0-3" x="179.852539" y="168.495117"/>
</g>
<path style="fill:none;stroke-width:1.2;stroke-linecap:butt;stroke-linejoin:miter;stroke:rgb(0%,0%,0%);stroke-opacity:1;stroke-miterlimit:10;" d="M 195.449219 152.148438 L 194.695312 141.972656 "/>
<path style="fill:none;stroke-width:1.2;stroke-linecap:butt;stroke-linejoin:miter;stroke:rgb(0%,0%,100%);stroke-opacity:1;stroke-miterlimit:10;" d="M 194.695312 141.972656 L 193.941406 131.792969 "/>
<path style="fill:none;stroke-width:1.2;stroke-linecap:butt;stroke-linejoin:miter;stroke:rgb(0%,0%,0%);stroke-opacity:1;stroke-miterlimit:10;" d="M 215.273438 157 L 195.449219 152.148438 "/>
<path style="fill:none;stroke-width:1.2;stroke-linecap:butt;stroke-linejoin:miter;stroke:rgb(0%,0%,0%);stroke-opacity:1;stroke-miterlimit:10;" d="M 214.433594 151.851562 L 198.574219 147.96875 "/>
<path style="fill:none;stroke-width:1.2;stroke-linecap:butt;stroke-linejoin:miter;stroke:rgb(0%,0%,100%);stroke-opacity:1;stroke-miterlimit:10;" d="M 193.941406 131.792969 L 212.832031 124.066406 "/>
<path style=" stroke:none;fill-rule:nonzero;fill:rgb(100%,100%,100%);fill-opacity:1;" d="M 186.941406 126.292969 L 200.941406 126.292969 L 200.941406 137.292969 L 186.941406 137.292969 Z M 186.941406 126.292969 "/>
<g style="fill:rgb(0%,0%,100%);fill-opacity:1;">
  <use xlink:href="#glyph0-2" x="186.941406" y="134.956055"/>
  <use xlink:href="#glyph0-3" x="193.918945" y="134.956055"/>
</g>
<path style="fill:none;stroke-width:1.2;stroke-linecap:butt;stroke-linejoin:miter;stroke:rgb(0%,0%,100%);stroke-opacity:1;stroke-miterlimit:10;" d="M 212.832031 124.066406 L 219.421875 131.855469 "/>
<path style="fill:none;stroke-width:1.2;stroke-linecap:butt;stroke-linejoin:miter;stroke:rgb(0%,0%,0%);stroke-opacity:1;stroke-miterlimit:10;" d="M 219.421875 131.855469 L 226.015625 139.644531 "/>
<path style="fill:none;stroke-width:1.2;stroke-linecap:butt;stroke-linejoin:miter;stroke:rgb(0%,0%,100%);stroke-opacity:1;stroke-miterlimit:10;" d="M 210.484375 128.726562 L 215.757812 134.960938 "/>
<path style="fill:none;stroke-width:1.2;stroke-linecap:butt;stroke-linejoin:miter;stroke:rgb(0%,0%,0%);stroke-opacity:1;stroke-miterlimit:10;" d="M 215.757812 134.960938 L 221.03125 141.191406 "/>
<path style=" stroke:none;fill-rule:nonzero;fill:rgb(100%,100%,100%);fill-opacity:1;" d="M 209.832031 118.566406 L 216.832031 118.566406 L 216.832031 129.566406 L 209.832031 129.566406 Z M 209.832031 118.566406 "/>
<g style="fill:rgb(0%,0%,100%);fill-opacity:1;">
  <use xlink:href="#glyph0-2" x="209.832031" y="127.229492"/>
</g>
<path style="fill:none;stroke-width:1.2;stroke-linecap:butt;stroke-linejoin:miter;stroke:rgb(0%,0%,0%);stroke-opacity:1;stroke-miterlimit:10;" d="M 226.015625 139.644531 L 215.273438 157 "/>
<path style="fill:none;stroke-width:1.2;stroke-linecap:butt;stroke-linejoin:miter;stroke:rgb(0%,0%,0%);stroke-opacity:1;stroke-miterlimit:10;" d="M 226.015625 139.644531 L 246.367188 138.136719 "/>
<path style="fill:none;stroke-width:1.2;stroke-linecap:butt;stroke-linejoin:miter;stroke:rgb(0%,0%,0%);stroke-opacity:1;stroke-miterlimit:10;" d="M 246.367188 138.136719 L 263.238281 126.652344 "/>
<path style="fill:none;stroke-width:1.2;stroke-linecap:butt;stroke-linejoin:miter;stroke:rgb(0%,0%,0%);stroke-opacity:1;stroke-miterlimit:10;" d="M 264.75 147.003906 L 246.367188 138.136719 "/>
<path style="fill:none;stroke-width:1.2;stroke-linecap:butt;stroke-linejoin:miter;stroke:rgb(0%,0%,0%);stroke-opacity:1;stroke-miterlimit:10;" d="M 263.238281 126.652344 L 264.75 147.003906 "/>
</g>
</svg>

<svg xmlns="http://www.w3.org/2000/svg" xmlns:xlink="http://www.w3.org/1999/xlink" width="300pt" height="300pt" viewBox="0 0 300 300"><defs><symbol overflow="visible"><path d="M.453 1.594v-7.938h4.5v7.938zm.5-.5h3.5v-6.938h-3.5zm0 0"/></symbol><symbol overflow="visible" id="a"><path d="M3.547-5.953c-.65 0-1.164.242-1.547.72-.375.48-.563 1.13-.563 1.952 0 .835.188 1.49.563 1.967.383.48.898.72 1.547.72.644 0 1.156-.24 1.53-.72.376-.476.564-1.132.564-1.968 0-.822-.187-1.474-.562-1.954-.375-.477-.887-.72-1.53-.72zm0-.734c.914 0 1.648.312 2.203.937.55.617.828 1.438.828 2.47 0 1.042-.277 1.87-.828 2.483-.555.617-1.29.922-2.203.922-.93 0-1.668-.305-2.22-.922C.774-1.41.5-2.237.5-3.28c0-1.033.273-1.853.828-2.47.55-.625 1.29-.938 2.22-.938zm0 0"/></symbol><symbol overflow="visible" id="b"><path d="M.89-6.563H2.08l2.906 5.485v-5.484h.86V0H4.656L1.75-5.484V0H.89zm0 0"/></symbol><symbol overflow="visible" id="c"><path d="M.89-6.563h.876v2.688H5v-2.688h.89V0H5v-3.125H1.766V0H.89zm0 0"/></symbol></defs><g><path fill="#fff" d="M0 0h300v300H0z"/><path d="M73.145 106.828l-6.247 8.067" stroke-width="1.2" stroke="#f00" stroke-miterlimit="10" fill="none"/><path d="M66.898 114.895l-6.25 8.066" stroke-width="1.2" stroke="#000" stroke-miterlimit="10" fill="none"/><path d="M76.94 109.766l-6.245 8.07" stroke-width="1.2" stroke="#f00" stroke-miterlimit="10" fill="none"/><path d="M70.695 117.836l-6.25 8.066" stroke-width="1.2" stroke="#000" stroke-miterlimit="10" fill="none"/><path d="M71.043 102.797h8v11h-8zm0 0" fill="#fff"/><use xlink:href="#a" x="71.043" y="111.46" fill="#f00"/><path d="M62.547 124.434l-10.2-.313" stroke-width="1.2" stroke="#000" stroke-miterlimit="10" fill="none"/><path d="M52.348 124.12l-10.2-.31M68.258 144.027l-2.856-9.797" stroke-width="1.2" stroke="#00f" stroke-miterlimit="10" fill="none"/><path d="M65.402 134.23l-2.855-9.796" stroke-width="1.2" stroke="#000" stroke-miterlimit="10" fill="none"/><path d="M42.148 123.81l-3.45 9.6" stroke-width="1.2" stroke="#00f" stroke-miterlimit="10" fill="none"/><path d="M38.7 133.41l-3.45 9.606" stroke-width="1.2" stroke="#000" stroke-miterlimit="10" fill="none"/><path d="M35.148 118.31h14v11h-14zm0 0" fill="#fff"/><g fill="#00f"><use xlink:href="#b" x="35.148" y="126.972"/><use xlink:href="#c" x="42.126" y="126.972"/></g><path d="M35.25 143.016l16.137 12.496M51.387 155.512l8.433-5.742" stroke-width="1.2" stroke="#000" stroke-miterlimit="10" fill="none"/><path d="M59.82 149.77l8.438-5.743M68.258 144.027l9.6 3.45" stroke-width="1.2" stroke="#00f" stroke-miterlimit="10" fill="none"/><path d="M77.86 147.477l9.605 3.45" stroke-width="1.2" stroke="#000" stroke-miterlimit="10" fill="none"/><path d="M65.258 138.527h7v11h-7zm0 0" fill="#fff"/><use xlink:href="#b" x="65.258" y="147.19" fill="#00f"/><path d="M87.465 150.926l3.63 20.082M92.555 152.078l2.902 16.067M103.043 137.738l-15.578 13.188M91.094 171.008l19.207 6.898M110.3 177.906l15.58-13.183M108.758 172.922l12.46-10.547M125.88 164.723l-3.63-20.086" stroke-width="1.2" stroke="#000" stroke-miterlimit="10" fill="none"/><path d="M145.086 171.62m-2.602-1.49l-.35.983m-2.255-2.472l-.704 1.965m-1.903-3.453l-1.054 2.946m-1.548-4.434l-1.41 3.926m-1.196-5.418l-1.76 4.91m-.845-6.398l-2.112 5.89m-.25-7.242l-2.434 6.777" stroke="#000" stroke-miterlimit="10" fill="none"/><path d="M122.25 144.637l-19.207-6.9M118.707 148.47l-15.367-5.52M145.086 171.62l15.578-13.186M145.086 171.62l3.633 20.083M163.027 158.008l-1.812-10.043" stroke-width="1.2" stroke="#000" stroke-miterlimit="10" fill="none"/><path d="M161.215 147.965l-1.817-10.04" stroke-width="1.2" stroke="#f00" stroke-miterlimit="10" fill="none"/><path d="M158.305 158.863l-1.817-10.043" stroke-width="1.2" stroke="#000" stroke-miterlimit="10" fill="none"/><path d="M156.488 148.82l-1.816-10.043" stroke-width="1.2" stroke="#f00" stroke-miterlimit="10" fill="none"/><path d="M160.664 158.434l9.606 3.45" stroke-width="1.2" stroke="#000" stroke-miterlimit="10" fill="none"/><path d="M170.27 161.883l9.605 3.45" stroke-width="1.2" stroke="#00f" stroke-miterlimit="10" fill="none"/><path d="M153.035 132.852h8v11h-8zm0 0" fill="#fff"/><use xlink:href="#a" x="153.035" y="141.515" fill="#f00"/><path d="M179.875 165.332l7.79-6.594" stroke-width="1.2" stroke="#00f" stroke-miterlimit="10" fill="none"/><path d="M187.664 158.738l7.785-6.59" stroke-width="1.2" stroke="#000" stroke-miterlimit="10" fill="none"/><path d="M172.875 159.832h14v11h-14zm0 0" fill="#fff"/><g fill="#00f"><use xlink:href="#b" x="172.875" y="168.495"/><use xlink:href="#c" x="179.853" y="168.495"/></g><path d="M195.45 152.148l-.755-10.175" stroke-width="1.2" stroke="#000" stroke-miterlimit="10" fill="none"/><path d="M194.695 141.973l-.754-10.18" stroke-width="1.2" stroke="#00f" stroke-miterlimit="10" fill="none"/><path d="M215.273 157l-19.824-4.852M214.434 151.852l-15.86-3.883" stroke-width="1.2" stroke="#000" stroke-miterlimit="10" fill="none"/><path d="M193.94 131.793l18.892-7.727" stroke-width="1.2" stroke="#00f" stroke-miterlimit="10" fill="none"/><path d="M186.94 126.293h14v11h-14zm0 0" fill="#fff"/><g fill="#00f"><use xlink:href="#b" x="186.941" y="134.956"/><use xlink:href="#c" x="193.919" y="134.956"/></g><path d="M212.832 124.066l6.59 7.79" stroke-width="1.2" stroke="#00f" stroke-miterlimit="10" fill="none"/><path d="M219.422 131.855l6.594 7.79" stroke-width="1.2" stroke="#000" stroke-miterlimit="10" fill="none"/><path d="M210.484 128.727l5.274 6.234" stroke-width="1.2" stroke="#00f" stroke-miterlimit="10" fill="none"/><path d="M215.758 134.96l5.273 6.23" stroke-width="1.2" stroke="#000" stroke-miterlimit="10" fill="none"/><path d="M209.832 118.566h7v11h-7zm0 0" fill="#fff"/><use xlink:href="#b" x="209.832" y="127.229" fill="#00f"/><path d="M226.016 139.645L215.273 157M226.016 139.645l20.35-1.508M246.367 138.137l16.87-11.485M264.75 147.004l-18.383-8.867M263.238 126.652l1.512 20.352" stroke-width="1.2" stroke="#000" stroke-miterlimit="10" fill="none"/></g></svg>
